X: 12
T: The Fiery Clock Face
C: Traditional
O: England
R: jig
M: 6/8
L: 1/8
K: Gmaj
|:d|"G" g2g G2A|B2c d2e|"F" =f2=f A2B|c2d e2f|
"G" g2g G2A|B2c d2e|"C" efg "D7" a2f|"G" g3 g2:|
|:A|"G" B2B GAB|"Am" c2B A2G|"D7" F2E D2E|F2G A2^A|
"G" B2B GAB|"Am" c2B A2G|"D7" FED E2F|"G" G3 G2:|

